X:1
T:Title
%%score { ( 1 3 ) | ( 2 4 ) }
L:1/8
Q:1/4=100
M:4/4
K:Ab
V:1 treble nm="Grand Piano"
V:3 treble 
V:2 bass 
V:4 bass 
V:1
 [CE]2 [Ec]2 [Ec]3 [EB] | [FA][FA][FB][FA] [FA]2 [DF]2 | [CE]2 [CA]2 [Ec]3 [CEA] | c2 B2 B4 | %4
w: W.~A.~Ogden * * *||||
 E2 c2 c3 [EB] | [FA][FA][FB][FA] [FA]2 F2 | E2 A2 c3 e | c2 B2 [CA]4 | %8
w: ||||
 [FA]2 [Fd]2 [Fd]2 [FA]>[FB] | [Ec]8[K:bass] | B2 B>B [=DB][DA][DG][DF] | E8 | %12
w: ||||
 [A,CE]2 [CEA]>[CEA] [CEA]4 | [A,DF]2 [FB]>[FB] [FB]2 [Fd]2 | [Ec]2 [CEA]2 [DEB]4 | %15
w: |||
 A2- [FA-]2 [EA]4[Q:1/4=99][Q:1/4=97][Q:1/4=96][Q:1/4=94][Q:1/4=93][Q:1/4=91][Q:1/4=90][Q:1/4=88][Q:1/4=87][Q:1/4=85][Q:1/4=84][Q:1/4=82][Q:1/4=81][Q:1/4=79][Q:1/4=78][Q:1/4=76] |] %16
w: |
V:2
 [A,,A,]2 [A,,A,]2 [A,,A,]3 [C,A,] | [D,A,][D,D][D,D][D,D] [D,D]2 [D,A,]2 | %2
 [A,,A,]2 [A,,E,]2 [A,,A,]3 A,, | [E,A,E]2 [E,G,E]2 [E,G,E]4 | [A,C]2 [A,E]2 [A,E]3 [C,A,] | %5
 [D,A,][D,D][D,D][D,D] [D,D]2 [F,A,D]2 | [A,C]2 [A,C]2 [A,E]3 [A,CE] | [E,A,E]2 [E,G,D]2 [A,,A,]4 | %8
 [D,A,]2 [D,A,]2 [D,A,]2 [D,A,]>[D,A,] | A,4 z4 | %10
 [E,G,E]2 [E,G,E]>[E,G,E] [B,,F,][B,,F,][B,,B,][B,,A,] | G,2 A,2 B,4 | A,,2 A,,>A,, A,,4 | %13
 D,2 [D,D]>[D,D] [D,D]2 [D,A,]2 | [E,A,]2 E,2 E,4 | z2 D2 C4 |] %16
V:3
 x8 | x8 | x8 | x8 | x8 | x8 | x8 | x8 | x8 | z2[K:bass] C,>E, A,4 | x8 | z2 C2 D4 | x8 | x8 | x8 | %15
 [CE]2 z2 z4 |] %16
V:4
 x8 | x8 | x8 | x8 | x8 | x8 | x8 | x8 | x8 | A,,2 z2 z4 | x8 | E,8 | x8 | x8 | x8 | A,,8 |] %16

